X:1367
T:Säbb Jons Gånglåt
Z:[[http://www.bluerose.karenlmyers.org/IncipitsGanglat6.html|Karen Myers (#2307)]]
Z:Upptecknad 9/2005
M:2/4
L:1/16
R:Gånglåt
O:Rättvik, Dalarna
K:G
Q:100
D2 |: (B,C)B,A, (G,B,)DG | B2B2 A2G2 | C2>E2 (GE)Gc | (e=f)ed c2(Bc) | D2>F2 A2d2 | f4 f4 |
e2fe d2c2 | (Bc)dB G2D2 | (B,C)B,A, (G,B,)DG | B2B2 A2G2 | C2>E2 (GE)Gc | (e=f)ed c2(Bc) |
D2>F2 A2d2 | f4 f4 | e2fe d2F2 | G6 D2 :: G2>B2 d2g2 | b4 b4 | (ab)af g2f2 | [c6e6]B2 |
(AB)AG (FA)de | f4 f4 | e2fe d2c2 | (Bc)dB G2D2 | G2>B2 d2g2 | b4 b4 |
(ab)af g2f2 | [c6e6]B2 | (AB)AG (FA)de | f4 f4 | e2fe d2F2 |1 G6 D2 :|2 G6 z2 |]
(:musicend:)

(:music:)
